X: 150
T:Jonathan's Jig
% Nottingham Music Database
S:Bob McQuillen March 1978, via Phil Rowe
M:6/8
K:D
de|"D"fgf "A7"ede|"D"f2d AFA|"G"Bcd "A7"e2c|"D"d3 -d2e|"D"fgf "A7"efe|
"D"d2f afa|"Em"b2a g2f|"A7"e3 -ede|"D"fgf "A"efe|"G"d2B "D"AFA|
"G"Bcd g2f|"D"f3 "A"e2A|"D"dcd "A"ede|"F#m"f2g a2g|"Bm"fed "A7"edc|"D"d3 -d
|:fg|"D"aba afg|aba afe|"D"def "G"g2f|
"D"f3 "A"e2A|"D"def "A7"ede|"D"f2d AFA|"Em"Bcd "A"e2c|"D"d3 -d:|<end>
<start>
